X: 257
T: Dugway Jig
M:6/8
R:jig
C:Carl Elliott (C) 2002
L:1/8
S:Patti Kusturok Lamoureux OTFFAS Fiddle Workshop 2005
Z:Alf Warnock - alf0@rogers.com
K:G
f|"G"gfg dcB|"Am"ABc E2E|"D"DFA "G"GBd|"A7"^cde "D"def|
"G"gfg dcB|"Am"ABc E2E|"D"DFA BAF|"G"GBA G2:|
B|"D"Ade fed|"G"B2g gab|"D"aba fdf|"A"gfg efg|
"D"a3 fdc|"G"Bdg gab|"A"agf fe^c|"D"dfe d3|
"D"fef dAc|"G"Bdg gab|"D"aba fdf|"A"gfg efg|
"D"a3 fdc|"G"Bdg gab|"A"agf fe^c|"D"dfe d3|]
